packages/kaspersky-hexa-ui-icons/src/iconsSVGs/32/Sound.svg

<svg xmlns="http://www.w3.org/2000/svg" width="32" height="32" fill="none" viewBox="0 0 32 32"><path fill="#000" fill-rule="evenodd" d="M19.8237 2.3463C21.1456 1.3849 23 2.3292 23 3.9638V9.29c2.891.8607 5 3.5378 5 6.7098s-2.109 5.8492-5 6.7099v5.3264c0 1.6346-1.8544 2.5789-3.1763 1.6175L10.6748 23H5c-.5523 0-1-.4477-1-1V10c0-.5523.4477-1 1-1h5.6748zM23 20.5842c1.7663-.7716 3-2.5348 3-4.5843s-1.2337-3.8126-3-4.5842zM10 11v10H6V11zm11 17.0362-9-6.5454V10.5092l9-6.5454z"/></svg>

<svg width="32" height="32" viewBox="0 0 32 32" fill="none" xmlns="http://www.w3.org/2000/svg">
<path fill-rule="evenodd" clip-rule="evenodd" d="M19.8237 2.3463C21.1456 1.38489 23 2.3292 23 3.96377V9.29009C25.891 10.1508 28 12.8279 28 15.9999C28 19.172 25.891 21.8491 23 22.7098V28.0362C23 29.6708 21.1456 30.6151 19.8237 29.6537L10.6748 23H5C4.44772 23 4 22.5523 4 22V10C4 9.44772 4.44772 9 5 9H10.6748L19.8237 2.3463ZM23 20.5842C24.7663 19.8126 26 18.0494 26 15.9999C26 13.9505 24.7663 12.1873 23 11.4157V20.5842ZM10 11V21H6V11H10ZM21 28.0362L12 21.4908V10.5092L21 3.96377V28.0362Z" fill="black"/>
</svg>
